icons/lift-gate.svg

<?xml version="1.0" encoding="UTF-8"?>
<svg width="15" height="15" viewBox="0 0 15 15" xmlns="http://www.w3.org/2000/svg" id="lift-gate">
  <path d="M1 4C1 2.89543 1.89543 2 3 2C4.10457 2 5 2.89543 5 4V12C5 12.5523 4.55228 13 4 13H2C1.44772 13 1 12.5523 1 12V4ZM4 4C4 3.44772 3.55228 3 3 3C2.44772 3 2 3.44772 2 4C2 4.55228 2.44772 5 3 5C3.55228 5 4 4.55228 4 4Z"/>
  <path d="M8.49999 6L6.99999 3H5.99999C5.99999 4 5.99999 5 5.99999 6H8.49999Z"/>
  <path d="M9.99999 6H11.5L9.99999 3H8.49999L9.99999 6Z"/>
  <path d="M13.25 6H13L11.5 3H13.25C13.6642 3 14 3.33579 14 3.75V5.25C14 5.66421 13.6642 6 13.25 6Z"/>
</svg>

<?xml version="1.0" encoding="UTF-8"?>
<svg width="15" height="15" viewBox="0 0 15 15" xmlns="http://www.w3.org/2000/svg" id="lift-gate">
  <path d="M1 4a2 2 0 1 1 4 0v8a1 1 0 0 1-1 1H2a1 1 0 0 1-1-1V4Zm3 0a1 1 0 1 0-2 0 1 1 0 0 0 2 0Zm4.5 2L7 3H6v3h2.5ZM10 6h1.5L10 3H8.5L10 6Zm3.25 0H13l-1.5-3h1.75a.75.75 0 0 1 .75.75v1.5a.75.75 0 0 1-.75.75Z"/>
</svg>
